img/icon/Icon_2.svg

<svg width="80" height="79" viewBox="0 0 80 79" fill="none" xmlns="http://www.w3.org/2000/svg">
<g id="Layer 2">
<g id="Layer 1">
<path id="environmental program" d="M51.1727 23.1356H30.2726C29.9634 23.1191 29.6725 22.9858 29.4596 22.7633C29.2466 22.5409 29.128 22.246 29.128 21.9395C29.128 21.6331 29.2466 21.3382 29.4596 21.1157C29.6725 20.8932 29.9634 20.76 30.2726 20.7435H51.1727C51.3369 20.7347 51.5011 20.7591 51.6554 20.8153C51.8097 20.8714 51.9508 20.9581 52.0702 21.07C52.1895 21.1819 52.2845 21.3168 52.3495 21.4663C52.4144 21.6158 52.4479 21.7768 52.4479 21.9395C52.4479 22.1023 52.4144 22.2633 52.3495 22.4128C52.2845 22.5623 52.1895 22.6972 52.0702 22.8091C51.9508 22.921 51.8097 23.0077 51.6554 23.0638C51.5011 23.12 51.3369 23.1444 51.1727 23.1356ZM17.027 23.1356H23.8279C24.1371 23.1191 24.428 22.9858 24.6409 22.7633C24.8539 22.5409 24.9725 22.246 24.9725 21.9395C24.9725 21.6331 24.8539 21.3382 24.6409 21.1157C24.428 20.8932 24.1371 20.76 23.8279 20.7435H17.027C16.7179 20.76 16.4269 20.8932 16.214 21.1157C16.0011 21.3382 15.8824 21.6331 15.8824 21.9395C15.8824 22.246 16.0011 22.5409 16.214 22.7633C16.4269 22.9858 16.7179 23.1191 17.027 23.1356ZM10.5824 20.7435H9.27014C8.96101 20.76 8.67004 20.8932 8.45712 21.1157C8.2442 21.3382 8.12553 21.6331 8.12553 21.9395C8.12553 22.246 8.2442 22.5409 8.45712 22.7633C8.67004 22.9858 8.96101 23.1191 9.27014 23.1356H10.5824C10.8915 23.1191 11.1825 22.9858 11.3954 22.7633C11.6083 22.5409 11.727 22.246 11.727 21.9395C11.727 21.6331 11.6083 21.3382 11.3954 21.1157C11.1825 20.8932 10.8915 20.76 10.5824 20.7435ZM33.8635 31.9184H17.027C16.7179 31.935 16.4269 32.0682 16.214 32.2907C16.0011 32.5132 15.8824 32.808 15.8824 33.1145C15.8824 33.421 16.0011 33.7158 16.214 33.9383C16.4269 34.1608 16.7179 34.294 17.027 34.3105H33.8635C34.1844 34.3105 34.4922 34.1843 34.7191 33.9597C34.946 33.7351 35.0734 33.4304 35.0734 33.1127C35.0734 32.7951 34.946 32.4904 34.7191 32.2658C34.4922 32.0411 34.1844 31.9149 33.8635 31.9149V31.9184ZM10.5824 31.9184H9.27014C8.96101 31.935 8.67004 32.0682 8.45712 32.2907C8.2442 32.5132 8.12553 32.808 8.12553 33.1145C8.12553 33.421 8.2442 33.7158 8.45712 33.9383C8.67004 34.1608 8.96101 34.294 9.27014 34.3105H10.5824C10.9032 34.3105 11.211 34.1843 11.4379 33.9597C11.6648 33.7351 11.7923 33.4304 11.7923 33.1127C11.7923 32.7951 11.6648 32.4904 11.4379 32.2658C11.211 32.0411 10.9032 31.9149 10.5824 31.9149V31.9184ZM17.0305 45.4785H33.8635C34.1727 45.462 34.4636 45.3287 34.6765 45.1062C34.8895 44.8837 35.0081 44.5889 35.0081 44.2824C35.0081 43.9759 34.8895 43.6811 34.6765 43.4586C34.4636 43.2361 34.1727 43.1029 33.8635 43.0864H17.027C16.723 43.1094 16.439 43.2452 16.2317 43.4667C16.0245 43.6881 15.9094 43.9788 15.9094 44.2807C15.9094 44.5825 16.0245 44.8733 16.2317 45.0947C16.439 45.3162 16.723 45.452 17.027 45.475L17.0305 45.4785ZM10.5824 43.0829H9.27014C8.96101 43.0994 8.67004 43.2326 8.45712 43.4551C8.2442 43.6776 8.12553 43.9725 8.12553 44.2789C8.12553 44.5854 8.2442 44.8803 8.45712 45.1027C8.67004 45.3252 8.96101 45.4585 9.27014 45.475H10.5824C10.8915 45.4585 11.1825 45.3252 11.3954 45.1027C11.6083 44.8803 11.727 44.5854 11.727 44.2789C11.727 43.9725 11.6083 43.6776 11.3954 43.4551C11.1825 43.2326 10.8915 43.0994 10.5824 43.0829ZM43.5217 54.2578H28.6641C28.3549 54.2744 28.064 54.4076 27.851 54.6301C27.6381 54.8526 27.5195 55.1474 27.5195 55.4539C27.5195 55.7604 27.6381 56.0552 27.851 56.2777C28.064 56.5002 28.3549 56.6334 28.6641 56.6499H43.5182C43.8391 56.6499 44.1468 56.5238 44.3737 56.2991C44.6006 56.0745 44.7281 55.7698 44.7281 55.4521C44.7281 55.1344 44.6006 54.8298 44.3737 54.6051C44.1468 54.3805 43.8391 54.2543 43.5182 54.2543L43.5217 54.2578ZM17.0305 56.6499H22.2229C22.5321 56.6334 22.823 56.5002 23.036 56.2777C23.2489 56.0552 23.3675 55.7604 23.3675 55.4539C23.3675 55.1474 23.2489 54.8526 23.036 54.6301C22.823 54.4076 22.5321 54.2744 22.2229 54.2578H17.027C16.723 54.2808 16.439 54.4167 16.2317 54.6381C16.0245 54.8595 15.9094 55.1503 15.9094 55.4521C15.9094 55.754 16.0245 56.0447 16.2317 56.2662C16.439 56.4876 16.723 56.6234 17.027 56.6465L17.0305 56.6499ZM10.5824 54.2543H9.27014C8.96101 54.2709 8.67004 54.4041 8.45712 54.6266C8.2442 54.8491 8.12553 55.1439 8.12553 55.4504C8.12553 55.7569 8.2442 56.0517 8.45712 56.2742C8.67004 56.4967 8.96101 56.6299 9.27014 56.6465H10.5824C10.8915 56.6299 11.1825 56.4967 11.3954 56.2742C11.6083 56.0517 11.727 55.7569 11.727 55.4504C11.727 55.1439 11.6083 54.8491 11.3954 54.6266C11.1825 54.4041 10.8915 54.2709 10.5824 54.2543ZM33.9059 66.6236C33.9059 66.7804 33.9371 66.9357 33.9977 67.0806C34.0583 67.2255 34.1472 67.3572 34.2592 67.4681C34.3712 67.579 34.5042 67.667 34.6506 67.727C34.7969 67.787 34.9538 67.8179 35.1122 67.8179H51.1763C51.3404 67.8267 51.5046 67.8023 51.6589 67.7461C51.8132 67.69 51.9544 67.6033 52.0737 67.4914C52.193 67.3794 52.2881 67.2446 52.353 67.0951C52.418 66.9456 52.4515 66.7846 52.4515 66.6218C52.4515 66.4591 52.418 66.298 52.353 66.1485C52.2881 65.999 52.193 65.8642 52.0737 65.7523C51.9544 65.6404 51.8132 65.5537 51.6589 65.4975C51.5046 65.4414 51.3404 65.417 51.1763 65.4258H35.1087C34.95 65.4258 34.7928 65.4568 34.6462 65.517C34.4996 65.5772 34.3665 65.6655 34.2544 65.7768C34.1424 65.8881 34.0536 66.0201 33.9931 66.1655C33.9327 66.3108 33.9019 66.4664 33.9023 66.6236H33.9059ZM17.0305 67.8179H28.6711C28.9803 67.8014 29.2712 67.6681 29.4841 67.4456C29.6971 67.2231 29.8157 66.9283 29.8157 66.6218C29.8157 66.3153 29.6971 66.0205 29.4841 65.798C29.2712 65.5755 28.9803 65.4423 28.6711 65.4258H17.0305C16.7214 65.4419 16.4302 65.5747 16.2169 65.7968C16.0037 66.019 15.8846 66.3137 15.8841 66.6202C15.8837 66.9267 16.0019 67.2217 16.2145 67.4445C16.4271 67.6673 16.7214 67.8009 17.0305 67.8179ZM10.5824 65.4258H9.27014C8.96101 65.4423 8.67004 65.5755 8.45712 65.798C8.2442 66.0205 8.12553 66.3153 8.12553 66.6218C8.12553 66.9283 8.2442 67.2231 8.45712 67.4456C8.67004 67.6681 8.96101 67.8014 9.27014 67.8179H10.5824C10.8915 67.8014 11.1825 67.6681 11.3954 67.4456C11.6083 67.2231 11.727 66.9283 11.727 66.6218C11.727 66.3153 11.6083 66.0205 11.3954 65.798C11.1825 65.5755 10.8915 65.4423 10.5824 65.4258ZM60.4429 37.4884V56.3287C62.3158 53.334 65.0258 50.9413 68.2445 49.4407C71.4633 47.9401 75.0526 47.3959 78.5775 47.8741C78.8978 47.8741 79.205 47.9998 79.4318 48.2237C79.6586 48.4476 79.7865 48.7514 79.7874 49.0684C80.2059 51.7314 80.0048 54.4538 79.1992 57.0281C78.3937 59.6024 77.0051 61.9606 75.1392 63.923C73.2734 65.8854 70.9796 67.4001 68.4327 68.3517C65.8858 69.3032 63.1531 69.6665 60.4429 69.4138V74.5962C60.4419 75.7595 59.975 76.875 59.1444 77.6979C58.3138 78.5208 57.1875 78.984 56.0124 78.9858H4.43401C3.25861 78.984 2.13188 78.5209 1.30075 77.6981C0.469618 76.8753 0.00186572 75.7598 0 74.5962V4.38616C0.00186779 3.22284 0.469733 2.10775 1.30097 1.28549C2.1322 0.463221 3.25893 0.000923269 4.43401 0L56.0089 0C57.1833 0.00184705 58.3092 0.464552 59.1396 1.28672C59.9701 2.10888 60.4375 3.22345 60.4393 4.38616V13.9687C60.4226 14.2747 60.2881 14.5628 60.0633 14.7736C59.8386 14.9843 59.5408 15.1018 59.2312 15.1018C58.9216 15.1018 58.6238 14.9843 58.3991 14.7736C58.1743 14.5628 58.0397 14.2747 58.023 13.9687V4.38616C58.0221 3.85792 57.8095 3.35163 57.4319 2.97843C57.0542 2.60523 56.5424 2.39563 56.0089 2.39563H45.9345V5.98558C45.9326 7.57156 45.2954 9.09205 44.1626 10.2135C43.0298 11.335 41.4939 11.9658 39.8919 11.9677H20.5509C18.9486 11.9658 17.4124 11.3351 16.279 10.2137C15.1457 9.09236 14.5077 7.57188 14.5049 5.98558V2.39563H4.43401C3.90042 2.39563 3.38864 2.60523 3.01102 2.97843C2.63339 3.35163 2.42077 3.85792 2.41983 4.38616V74.5962C2.41983 75.125 2.63204 75.6322 3.00977 76.0062C3.3875 76.3801 3.89981 76.5902 4.43401 76.5902H56.0089C56.5431 76.5902 57.0554 76.3801 57.4331 76.0062C57.8108 75.6322 58.023 75.125 58.023 74.5962V53.4581C55.3131 53.7102 52.5808 53.3465 50.0343 52.3947C47.4879 51.4429 45.1946 49.9281 43.3291 47.9658C41.4637 46.0035 40.0754 43.6455 39.2701 41.0714C38.4647 38.4974 38.2636 35.7754 38.682 33.1127C38.6816 32.9556 38.7124 32.7999 38.7728 32.6546C38.8333 32.5093 38.922 32.3772 39.0341 32.266C39.1462 32.1547 39.2793 32.0664 39.4259 32.0062C39.5725 31.9459 39.7297 31.9149 39.8884 31.9149C43.4137 31.4366 47.0034 31.9811 50.2223 33.4824C53.4412 34.9837 56.151 37.3773 58.023 40.373V33.1092C58.0652 30.5882 58.6525 28.1053 59.7452 25.8277C60.838 23.5502 62.4109 21.5308 64.358 19.9055C66.3052 18.2803 68.5815 17.0868 71.0336 16.4055C73.4858 15.7242 76.0569 15.5708 78.574 15.9557C78.8946 15.9566 79.2018 16.0831 79.4285 16.3076C79.6552 16.532 79.783 16.8361 79.7839 17.1535C80.1727 19.6454 80.0178 22.1908 79.3296 24.6184C78.6414 27.0461 77.4359 29.2996 75.7942 31.2273C74.1525 33.155 72.1127 34.7121 69.8121 35.7939C67.5116 36.8758 65.0036 37.4571 62.457 37.4989L60.4429 37.4884ZM60.4429 33.4026L68.0516 25.87C68.1618 25.7499 68.2955 25.6533 68.4445 25.586C68.5936 25.5186 68.7549 25.4819 68.9187 25.4782C69.0825 25.4744 69.2454 25.5036 69.3974 25.564C69.5495 25.6244 69.6876 25.7147 69.8033 25.8295C69.9191 25.9444 70.01 26.0812 70.0707 26.2319C70.1314 26.3826 70.1606 26.5439 70.1564 26.706C70.1523 26.8682 70.1149 27.0278 70.0466 27.1753C69.9782 27.3227 69.8803 27.4548 69.7589 27.5637L62.1537 35.0963C64.3059 35.1138 66.4373 34.6783 68.4067 33.8187C70.3761 32.959 72.1384 31.6949 73.577 30.1099C75.0155 28.525 76.0974 26.6555 76.7509 24.6253C77.4044 22.5951 77.6146 20.4506 77.3676 18.3339C75.2545 18.0889 73.113 18.2866 71.0822 18.9144C69.0514 19.5421 67.1767 20.5858 65.5799 21.9776C63.9831 23.3694 62.6999 25.0782 61.8137 26.993C60.9274 28.9078 60.458 30.9857 60.4358 33.0918L60.4429 33.4026ZM41.1019 34.2966C40.8543 36.4134 41.0641 38.5581 41.7174 40.5886C42.3707 42.619 43.4525 44.4887 44.8911 46.0738C46.3298 47.6589 48.0924 48.9231 50.062 49.7825C52.0317 50.642 54.1633 51.0771 56.3158 51.059L48.7106 43.5299C48.4903 43.3039 48.3684 43.0014 48.3712 42.6874C48.374 42.3734 48.5012 42.073 48.7255 41.851C48.9498 41.6289 49.2532 41.5029 49.5704 41.5002C49.8876 41.4974 50.1932 41.6181 50.4214 41.8362L58.0266 49.3653C58.0437 47.2352 57.6035 45.1258 56.7352 43.1768C55.8669 41.2278 54.5902 39.4838 52.9897 38.0601C51.3891 36.6363 49.5014 35.5655 47.4513 34.9185C45.4013 34.2715 43.2358 34.0631 41.0983 34.3071L41.1019 34.2966ZM16.9318 5.98558C16.9327 6.9362 17.3141 7.84772 17.9924 8.52057C18.6707 9.19342 19.5907 9.57275 20.5509 9.57552H39.8919C40.8534 9.5746 41.7752 9.19608 42.455 8.52303C43.1349 7.84999 43.5172 6.93741 43.5182 5.98558V2.39563H16.9318V5.98558ZM60.4393 65.328L68.0481 57.7989C68.2745 57.5747 68.5815 57.4488 68.9017 57.4488C69.2219 57.4488 69.5289 57.5747 69.7553 57.7989C69.9817 58.023 70.1089 58.327 70.1089 58.644C70.1089 58.9609 69.9817 59.2649 69.7553 59.4891L62.1502 67.0217C64.3034 67.0426 66.4365 66.6094 68.4075 65.7509C70.3785 64.8923 72.1423 63.6282 73.5815 62.0425C75.0207 60.4568 76.1024 58.5858 76.7546 56.5542C77.4068 54.5225 77.6145 52.3766 77.3641 50.2593H75.3499C73.3665 50.2626 71.4036 50.657 69.5758 51.4193C67.748 52.1816 66.0918 53.2966 64.7039 54.6992C63.3159 56.1019 62.224 57.7641 61.4918 59.589C60.7597 61.4139 60.4019 63.3648 60.4393 65.328Z" fill="#161616"/>
</g>
</g>
</svg>

<svg xmlns="http://www.w3.org/2000/svg" width="80" height="79" fill="none">
    <path fill="#161616"
        d="M51.173 23.136h-20.9c-.31-.017-.6-.15-.813-.373a1.19 1.19 0 0 1 0-1.647c.212-.223.503-.356.813-.372h20.9a1.22 1.22 0 0 1 .897.326 1.199 1.199 0 0 1 .378.87 1.188 1.188 0 0 1-.378.87 1.212 1.212 0 0 1-.897.326Zm-34.146 0h6.8c.31-.017.601-.15.814-.373a1.19 1.19 0 0 0 0-1.647 1.215 1.215 0 0 0-.813-.372h-6.801c-.31.016-.6.15-.813.372a1.192 1.192 0 0 0 0 1.647c.213.223.504.356.813.373Zm-6.445-2.392H9.27c-.309.016-.6.15-.813.372a1.192 1.192 0 0 0 0 1.647c.213.223.504.356.813.373h1.312c.31-.017.6-.15.813-.373a1.191 1.191 0 0 0 0-1.647 1.215 1.215 0 0 0-.813-.372Zm23.282 11.174H17.027c-.31.017-.6.15-.813.373a1.191 1.191 0 0 0 0 1.647c.213.223.504.356.813.372h16.837c.32 0 .628-.126.855-.35a1.192 1.192 0 0 0 0-1.694 1.216 1.216 0 0 0-.855-.351v.003Zm-23.282 0H9.27c-.309.017-.6.15-.813.373a1.191 1.191 0 0 0 0 1.647c.213.223.504.356.813.372h1.312c.321 0 .629-.126.856-.35a1.192 1.192 0 0 0 0-1.694 1.216 1.216 0 0 0-.856-.351v.003Zm6.448 13.56h16.834c.309-.016.6-.15.813-.372a1.191 1.191 0 0 0 0-1.647 1.215 1.215 0 0 0-.813-.373H17.027a1.215 1.215 0 0 0-.795.38 1.191 1.191 0 0 0 0 1.629c.207.221.491.357.795.38l.003.003Zm-6.448-2.395H9.27c-.309.016-.6.15-.813.372a1.192 1.192 0 0 0 0 1.648c.213.222.504.355.813.372h1.312c.31-.017.6-.15.813-.372a1.191 1.191 0 0 0 0-1.648 1.215 1.215 0 0 0-.813-.372Zm32.94 11.175H28.664c-.31.016-.6.15-.813.372a1.191 1.191 0 0 0 0 1.648c.213.222.504.355.813.372h14.854c.321 0 .629-.126.856-.35a1.192 1.192 0 0 0 0-1.695 1.216 1.216 0 0 0-.856-.35l.004.003ZM17.03 56.65h5.192c.31-.017.6-.15.813-.372a1.191 1.191 0 0 0 0-1.648 1.216 1.216 0 0 0-.813-.372h-5.196a1.215 1.215 0 0 0-.795.38 1.191 1.191 0 0 0 0 1.628c.207.222.491.357.795.38l.003.004Zm-6.449-2.396H9.27c-.309.017-.6.15-.813.373a1.191 1.191 0 0 0 0 1.647c.213.223.504.356.813.373h1.312c.31-.017.6-.15.813-.373a1.191 1.191 0 0 0 0-1.647 1.215 1.215 0 0 0-.813-.373Zm23.324 12.37a1.184 1.184 0 0 0 .353.844 1.206 1.206 0 0 0 .853.35h16.064a1.22 1.22 0 0 0 .898-.327 1.198 1.198 0 0 0 .378-.87 1.187 1.187 0 0 0-.378-.869 1.213 1.213 0 0 0-.898-.326H35.11a1.218 1.218 0 0 0-.855.35 1.195 1.195 0 0 0-.352.848h.004ZM17.03 67.818h11.64c.31-.017.6-.15.813-.372a1.191 1.191 0 0 0 0-1.648 1.215 1.215 0 0 0-.813-.372h-11.64c-.31.016-.6.149-.814.37a1.192 1.192 0 0 0-.002 1.648c.212.223.506.357.816.374Zm-6.449-2.392H9.27c-.309.016-.6.15-.813.372a1.191 1.191 0 0 0 0 1.648c.213.222.504.355.813.372h1.312c.31-.017.6-.15.813-.372a1.191 1.191 0 0 0 0-1.648 1.215 1.215 0 0 0-.813-.372Zm49.86-27.938v18.84a18.332 18.332 0 0 1 7.803-6.887 18.558 18.558 0 0 1 10.332-1.567c.32 0 .628.126.855.35.227.224.355.527.355.844a17.532 17.532 0 0 1-.588 7.96 17.662 17.662 0 0 1-4.06 6.895 17.893 17.893 0 0 1-6.706 4.429 18.048 18.048 0 0 1-7.99 1.062v5.182a4.371 4.371 0 0 1-1.299 3.102 4.46 4.46 0 0 1-3.132 1.288H4.434a4.464 4.464 0 0 1-3.133-1.288A4.375 4.375 0 0 1 0 74.596V4.386a4.371 4.371 0 0 1 1.301-3.1A4.46 4.46 0 0 1 4.434 0h51.575a4.46 4.46 0 0 1 3.13 1.287 4.37 4.37 0 0 1 1.3 3.1v9.582a1.193 1.193 0 0 1-.376.805 1.217 1.217 0 0 1-1.664 0 1.193 1.193 0 0 1-.376-.805V4.386c0-.528-.214-1.034-.591-1.408a2.025 2.025 0 0 0-1.423-.582H45.934v3.59a5.959 5.959 0 0 1-1.771 4.228 6.08 6.08 0 0 1-4.271 1.754H20.55a6.084 6.084 0 0 1-4.272-1.754 5.963 5.963 0 0 1-1.774-4.228v-3.59H4.434c-.534 0-1.045.21-1.423.582-.378.374-.59.88-.591 1.408v70.21c0 .529.212 1.036.59 1.41.378.374.89.584 1.424.584h51.575c.534 0 1.046-.21 1.424-.584.378-.374.59-.881.59-1.41V53.458a18.048 18.048 0 0 1-7.989-1.063 17.894 17.894 0 0 1-6.705-4.43 17.662 17.662 0 0 1-4.059-6.894 17.531 17.531 0 0 1-.588-7.958 1.185 1.185 0 0 1 .352-.847 1.206 1.206 0 0 1 .854-.351 18.555 18.555 0 0 1 10.334 1.567 18.327 18.327 0 0 1 7.801 6.891v-7.264c.042-2.52.63-5.004 1.722-7.281a17.679 17.679 0 0 1 4.613-5.922 17.893 17.893 0 0 1 6.676-3.5 18.006 18.006 0 0 1 7.54-.45c.32 0 .628.127.855.352.226.224.354.528.355.846a17.482 17.482 0 0 1-.454 7.464 17.595 17.595 0 0 1-3.536 6.61 17.81 17.81 0 0 1-5.982 4.566 17.979 17.979 0 0 1-7.355 1.705l-2.014-.01Zm0-4.085 7.61-7.533a1.208 1.208 0 0 1 .867-.392 1.22 1.22 0 0 1 .884.351 1.197 1.197 0 0 1 .353.877 1.188 1.188 0 0 1-.397.858l-7.605 7.532a15.322 15.322 0 0 0 6.253-1.277 15.185 15.185 0 0 0 5.17-3.71 15 15 0 0 0 3.174-5.484c.653-2.03.864-4.174.617-6.291a15.314 15.314 0 0 0-6.286.58 15.209 15.209 0 0 0-5.502 3.064 15.028 15.028 0 0 0-3.766 5.015 14.89 14.89 0 0 0-1.378 6.099l.007.31Zm-19.34.894a14.89 14.89 0 0 0 .615 6.292c.654 2.03 1.736 3.9 3.174 5.485a15.18 15.18 0 0 0 5.171 3.709c1.97.859 4.101 1.294 6.254 1.276l-7.605-7.53a1.192 1.192 0 0 1 .014-1.678 1.216 1.216 0 0 1 1.696-.015l7.606 7.53a14.91 14.91 0 0 0-1.292-6.19 15.043 15.043 0 0 0-3.745-5.116 15.227 15.227 0 0 0-5.539-3.142 15.334 15.334 0 0 0-6.353-.61l.004-.011ZM16.932 5.986c0 .95.382 1.862 1.06 2.535a3.648 3.648 0 0 0 2.559 1.055h19.34c.962-.001 1.884-.38 2.564-1.053a3.575 3.575 0 0 0 1.063-2.537v-3.59H16.932v3.59Zm43.507 59.342 7.61-7.53a1.213 1.213 0 0 1 1.706 0 1.189 1.189 0 0 1 0 1.691l-7.605 7.533a15.3 15.3 0 0 0 6.258-1.271 15.164 15.164 0 0 0 5.174-3.709 14.98 14.98 0 0 0 3.173-5.488c.652-2.032.86-4.177.61-6.295H75.35a15.068 15.068 0 0 0-5.774 1.16 14.947 14.947 0 0 0-4.872 3.28 14.775 14.775 0 0 0-3.212 4.89 14.661 14.661 0 0 0-1.053 5.739Z" />
</svg>
